svgs/solid/chart-network.svg

<svg xmlns="http://www.w3.org/2000/svg" viewBox="0 0 640 512"><!--! Font Awesome Pro 6.4.2 by @fontawesome - https://fontawesome.com License - https://fontawesome.com/license (Commercial License) Copyright 2023 Fonticons, Inc. --><path d="M288 64c0 13.7-4.3 26.3-11.6 36.7l29.2 62.5c9.8-2.1 20-3.2 30.4-3.2c36.1 0 69 13.3 94.3 35.2L512.4 135c-.2-2.3-.4-4.6-.4-7c0-35.3 28.7-64 64-64s64 28.7 64 64s-28.7 64-64 64c-9.2 0-17.9-1.9-25.8-5.4l-82 60.2c7.6 17.5 11.8 36.9 11.8 57.2c0 15.6-2.5 30.7-7.1 44.8l72 43.2c9.2-5.1 19.8-8 31.1-8c35.3 0 64 28.7 64 64s-28.7 64-64 64s-64-28.7-64-64l0-1.1-72.1-43.3C413.7 431 376.8 448 336 448c-68.5 0-125.9-47.9-140.4-112H119.4c-11.1 19.1-31.7 32-55.4 32c-35.3 0-64-28.7-64-64s28.7-64 64-64c23.7 0 44.4 12.9 55.4 32h76.1c7.5-33 26.3-61.6 52.1-81.7l-29.2-62.5C185.7 124.9 160 97.5 160 64c0-35.3 28.7-64 64-64s64 28.7 64 64zm48 288a48 48 0 1 0 0-96 48 48 0 1 0 0 96z"/></svg>

<svg xmlns="http://www.w3.org/2000/svg" viewBox="0 0 640 512"><!--! Font Awesome Pro 6.1.1 by @fontawesome - https://fontawesome.com License - https://fontawesome.com/license (Commercial License) Copyright 2022 Fonticons, Inc. --><path d="M287.1 64C287.1 77.65 283.7 90.31 276.4 100.7L305.6 163.2C315.4 161.1 325.6 160 336 160C372.1 160 405 173.3 430.3 195.2L512.4 134.1C512.1 132.7 512 130.4 512 128C512 92.65 540.7 64 576 64C611.3 64 640 92.65 640 128C640 163.3 611.3 192 576 192C566.8 192 558.1 190.1 550.2 186.6L468.2 246.8C475.8 264.3 480 283.7 480 304C480 319.6 477.5 334.7 472.9 348.8L544.9 392C554.1 386.9 564.7 384 576 384C611.3 384 640 412.7 640 448C640 483.3 611.3 512 576 512C540.7 512 512 483.3 512 448L512 446.9L439.9 403.7C413.7 430.1 376.8 448 336 448C267.5 448 210.1 400.1 195.6 336H119.4C108.4 355.1 87.69 368 64 368C28.65 368 0 339.3 0 304C0 268.7 28.65 240 64 240C87.69 240 108.4 252.9 119.4 272H195.6C203 239 221.8 210.4 247.6 190.3L218.4 127.8C185.7 124.9 160 97.47 160 64C160 28.65 188.7 0 224 0C259.3 0 288 28.65 288 64H287.1zM336 352C362.5 352 384 330.5 384 304C384 277.5 362.5 256 336 256C309.5 256 287.1 277.5 287.1 304C287.1 330.5 309.5 352 336 352z"/></svg>
